polaris-icons/icons/newicons/DeleteMajor.svg

<svg width="20" height="20" viewBox="0 0 20 20" fill="none" xmlns="http://www.w3.org/2000/svg">
<path d="M11.5001 8C11.9143 8 12.2501 8.33579 12.2501 8.75V13.25C12.2501 13.6642 11.9143 14 11.5001 14C11.0858 14 10.7501 13.6642 10.7501 13.25V8.75C10.7501 8.33579 11.0858 8 11.5001 8Z" fill="black"/>
<path d="M9.25006 8.75C9.25006 8.33579 8.91427 8 8.50006 8C8.08585 8 7.75006 8.33579 7.75006 8.75V13.25C7.75006 13.6642 8.08585 14 8.50006 14C8.91427 14 9.25006 13.6642 9.25006 13.25V8.75Z" fill="black"/>
<path fill-rule="evenodd" clip-rule="evenodd" d="M7.25 4.25C7.25 2.73122 8.48122 1.5 10 1.5C11.5188 1.5 12.75 2.73122 12.75 4.25H15.7501C16.1643 4.25 16.5001 4.58579 16.5001 5C16.5001 5.41421 16.1643 5.75 15.7501 5.75H15.5L15.4998 13.2001C15.4998 14.8802 15.4998 15.7203 15.1728 16.362C14.8852 16.9265 14.4262 17.3854 13.8617 17.673C13.22 18 12.3799 18 10.6998 18H9.30004C7.61984 18 6.77974 18 6.13799 17.673C5.5735 17.3854 5.11455 16.9264 4.82693 16.3619C4.49995 15.7202 4.49997 14.8801 4.5 13.1999L4.50015 5.75H4.25006C3.83585 5.75 3.50006 5.41421 3.50006 5C3.50006 4.58579 3.83585 4.25 4.25006 4.25H7.25ZM8.75 4.25C8.75 3.55964 9.30964 3 10 3C10.6904 3 11.25 3.55964 11.25 4.25H8.75ZM6.00016 5.75H14L13.9998 13.2001C13.9998 14.0649 13.9986 14.6233 13.9639 15.0483C13.9306 15.4558 13.8741 15.6068 13.8363 15.681C13.6925 15.9632 13.463 16.1927 13.1807 16.3365C13.1066 16.3743 12.9555 16.4308 12.548 16.4641C12.123 16.4988 11.5646 16.5 10.6998 16.5H9.30004C8.43519 16.5 7.87676 16.4988 7.45175 16.4641C7.04424 16.4308 6.89316 16.3743 6.81899 16.3365C6.53674 16.1927 6.30727 15.9632 6.16346 15.681C6.12567 15.6068 6.06916 15.4557 6.03587 15.0482C6.00115 14.6232 6 14.0648 6.00001 13.1999L6.00016 5.75Z" fill="black"/>
</svg>

<svg viewBox="0 0 20 20" fill="none" xmlns="http://www.w3.org/2000/svg"><path d="M11.5 8a.75.75 0 0 1 .75.75v4.5a.75.75 0 0 1-1.5 0v-4.5a.75.75 0 0 1 .75-.75Z" fill="#000"/><path d="M9.25 8.75a.75.75 0 0 0-1.5 0v4.5a.75.75 0 0 0 1.5 0v-4.5Z" fill="#000"/><path fill-rule="evenodd" clip-rule="evenodd" d="M7.25 4.25a2.75 2.75 0 0 1 5.5 0h3a.75.75 0 0 1 0 1.5h-.25v7.45c0 1.68 0 2.52-.327 3.162a3 3 0 0 1-1.311 1.311c-.642.327-1.482.327-3.162.327h-1.4c-1.68 0-2.52 0-3.162-.327a3 3 0 0 1-1.311-1.311c-.327-.642-.327-1.482-.327-3.162v-7.45h-.25a.75.75 0 0 1 0-1.5h3Zm1.5 0a1.25 1.25 0 1 1 2.5 0h-2.5Zm-2.75 1.5h8v7.45c0 .865-.001 1.423-.036 1.848-.033.408-.09.559-.128.633a1.5 1.5 0 0 1-.655.656c-.074.037-.225.094-.633.127-.425.035-.983.036-1.848.036h-1.4c-.865 0-1.423-.001-1.848-.036-.408-.033-.559-.09-.633-.127a1.5 1.5 0 0 1-.656-.656c-.037-.074-.094-.225-.127-.633-.035-.425-.036-.983-.036-1.848v-7.45Z" fill="#000"/></svg>
